Papirus/24x24/apps/distributor-logo-absolute.svg

<svg width="24" height="24" version="1.1" xmlns="http://www.w3.org/2000/svg">
 <rect x="3" y="3.4666667" width="19" height="19" rx="1" ry="1" style="opacity:.2"/>
 <rect x="3" y="3" width="19" height="19" rx="1" ry="1" style="fill:#7d644e"/>
 <path d="m16 2.5c-0.554 0-1 0.446-1 1v10c0 0.554 0.446 1 1 1h3c0.554 0 1-0.446 1-1v-10c0-0.554-0.446-1-1-1zm-11 2c-0.554 0-1 0.446-1 1h7v3h-7v5c0 0.554 0.446 1 1 1h8c0.554 0 1-0.446 1-1v-8c0-0.554-0.446-1-1-1zm0 6h6v3h-6zm-2.076172 5c-0.511385 0-0.923828 0.446-0.923828 1v3c0 0.554 0.412443 1 0.923828 1h10.152344c0.511384 0 0.923828-0.446 0.923828-1v-3c0-0.554-0.412444-1-0.923828-1zm13.076172 0c-0.554 0-1 0.446-1 1v3c0 0.554 0.446 1 1 1h3c0.554 0 1-0.446 1-1v-3c0-0.554-0.446-1-1-1z" style="opacity:.2"/>
 <path d="m5 4c-0.554 0-1 0.446-1 1h7v3h-7v5c0 0.554 0.446 1 1 1h8c0.554 0 1-0.446 1-1v-8c0-0.554-0.446-1-1-1zm0 6h6v3h-6zm11 5c-0.554 0-1 0.446-1 1v3c0 0.554 0.446 1 1 1h3c0.554 0 1-0.446 1-1v-3c0-0.554-0.446-1-1-1z" style="fill:#ffffff"/>
 <path d="m4 3c-0.554 0-1 0.446-1 1v0.4667969c0-0.554 0.446-1 1-1h17c0.554 0 1 0.446 1 1v-0.4667969c0-0.554-0.446-1-1-1z" style="fill:#ffffff;opacity:.2"/>
 <rect x="15" y="2" width="5" height="12" rx="1" ry="1" style="fill:#b38a48"/>
 <rect x="2" y="15" width="12" height="5" rx=".92307693" ry="1" style="fill:#c8a972"/>
 <path d="m16 2c-0.554 0-1 0.446-1 1v0.4648438c0-0.5540001 0.446-1 1-1h3c0.554 0 1 0.446 1 1v-0.4648438c0-0.554-0.446-1-1-1z" style="fill:#ffffff;opacity:.2"/>
 <path d="m2.923077 15c-0.511385 0-0.923077 0.446-0.923077 1v0.464844c0-0.554 0.411692-1 0.923077-1h10.153846c0.511385 0 0.923077 0.446 0.923077 1v-0.464844c0-0.554-0.411692-1-0.923077-1z" style="fill:#ffffff;opacity:.2"/>
</svg>

<svg xmlns="http://www.w3.org/2000/svg" width="24" height="24" version="1.1">
 <rect style="opacity:0.2" width="19" height="19" x="3" y="3.5" rx="1" ry="1"/>
 <rect style="fill:#7d644e" width="19" height="19" x="3" y="3" rx="1" ry="1"/>
 <path style="opacity:0.2" d="M 16,2.5 C 15.446,2.5 15,2.946 15,3.5 V 13.5 C 15,14.054 15.446,14.5 16,14.5 H 19 C 19.554,14.5 20,14.054 20,13.5 V 3.5 C 20,2.946 19.554,2.5 19,2.5 Z M 5,4.5 C 4.446,4.5 4,4.946 4,5.5 H 11 V 8.5 H 4 V 13.5 C 4,14.054 4.446,14.5 5,14.5 H 13 C 13.554,14.5 14,14.054 14,13.5 V 5.5 C 14,4.946 13.554,4.5 13,4.5 Z M 5,10.5 H 11 V 13.5 H 5 Z M 2.9238,15.5 C 2.4124,15.5 2,15.946 2,16.5 V 19.5 C 2,20.054 2.4124,20.5 2.9238,20.5 H 13.076 C 13.588,20.5 14,20.054 14,19.5 V 16.5 C 14,15.946 13.588,15.5 13.076,15.5 Z M 16,15.5 C 15.446,15.5 15,15.946 15,16.5 V 19.5 C 15,20.054 15.446,20.5 16,20.5 H 19 C 19.554,20.5 20,20.054 20,19.5 V 16.5 C 20,15.946 19.554,15.5 19,15.5 Z"/>
 <path style="fill:#ffffff" d="M 5,4 C 4.446,4 4,4.446 4,5 H 11 V 8 H 4 V 13 C 4,13.554 4.446,14 5,14 H 13 C 13.554,14 14,13.554 14,13 V 5 C 14,4.446 13.554,4 13,4 Z M 5,10 H 11 V 13 H 5 Z M 16,15 C 15.446,15 15,15.446 15,16 V 19 C 15,19.554 15.446,20 16,20 H 19 C 19.554,20 20,19.554 20,19 V 16 C 20,15.446 19.554,15 19,15 Z"/>
 <path style="opacity:0.1;fill:#ffffff" d="M 4,3 C 3.446,3 3,3.446 3,4 V 4.4668 C 3,3.9128 3.446,3.4668 4,3.4668 H 21 C 21.554,3.4668 22,3.9128 22,4.4668 V 4 C 22,3.446 21.554,3 21,3 Z"/>
 <rect style="fill:#b38a48" width="5" height="12" x="15" y="2" rx="1" ry="1"/>
 <rect style="fill:#c8a972" width="12" height="5" x="2" y="15" rx=".923" ry="1"/>
 <path style="opacity:0.2;fill:#ffffff" d="M 16,2 C 15.446,2 15,2.446 15,3 V 3.4648 C 15,2.9108 15.446,2.4648 16,2.4648 H 19 C 19.554,2.4648 20,2.9108 20,3.4648 V 3 C 20,2.446 19.554,2 19,2 Z"/>
 <path style="opacity:0.2;fill:#ffffff" d="M 2.9231,15 C 2.4117,15 2,15.446 2,16 V 16.465 C 2,15.911 2.4117,15.465 2.9231,15.465 H 13.077 C 13.588,15.465 14,15.911 14,16.465 V 16 C 14,15.446 13.588,15 13.077,15 Z"/>
</svg>
